X:27
T:The Earle of Essex Galiard (12)*
R:Gaillarde
C:Iohn (John) Dowland
H:
N:http://serpent.laymusic.org/~lconrad/music/dowland/essex/
B:
O:Angleterre - England
A:
Z:Eric Forgeot - http://anamnese.online.fr
M:3/4
L:1/4
Q:1/4=120
K:F
%%staves 1 {(2 3) (4 5)}
V:1
G/2>A/2 B/2G/2 g | f>_e d | dcB | A3 | fd/2_ec/2 | d>c B/2A/4B/4 |
c/2B/2A/2G/2A | G3 :||: d2d | d3/2 de/2 | f>d B/2c/2 | d>c d/2e/2 | 
fd/2_ec/2 d>f_e | dg2 | ^f3 :||: d2d | d2d | e2e | 
e2e | d2d | d2d | =B/2>c/2 d/2e/2 c/2d/2 |1 =BHA2 :|2 =BHA2 |]
V:2
%pb sur cette ligne
GG/2>A/2 B/2c/2 | d>cB | BAG | ^F/2 ^F/2 G F || AB/2 c/2>B/2A/2 | B>AG |
V:3
K:F treble

%%MIDI transpose -12

%%MIDI transpose -12
